X:86
T:Patrick Jonsson-Good
M:6/8
L:1/8
C:©  Paul Gitlitz 1997
R:Jig
B:Giblitz Fancy
N: Written for Dave Jonsson  and Linnea Good's first child in 1997
K:D
"D"DzD(DF)B|"A"AzA  (AB)d|"Em"ede "F#m"faf|"Em"edB "A"AFE|!
"D"~D2D (DF)B|"A"~A2A (AB)d|"Em"ede "F#m"faf|"Em"edB "D"d3:|!
|"D"a2a "D/A"agf|"Em"edB "G"G2 D|"G/B"GAB "G/D"dBA|"D"FAF "A"E2 e|!
"D"~a3 "D/A"agf|"Em"ede "D"fdB|"F#m"AFA "G"BdB|"A"AFE "D"D3|!
"D"a2a "D/A"agf|"Em"edB "G"G2D|"G/B"GAB "G/D"dBA|"D"FAF "A"E2A|!
"D"(DF)A "G"(DG)B|"A"(Ac)e "D"(Ad)f|"G"e/2f/2gf "Em"edB|"A"AFE "D"D3|]
